X:154
T: MAETEN ES EN GOOD MANN
N: E1269
O: Europa, Mitteleuropa, Deutschland, Bergisches Land, Barmen
R: Ansinge -, Brauchtums - Lied, Kirchen - Fest, Sankt Martin
M: 2/4
L: 1/8
K: F
 | cccd | c2Az |
cccd | ccA
B | cccd | c2A
B | cccd | c2z2 |
cBAd | cBA2 |
cccd | cBA2 |
cccc | d2c
c | BBAc | G2Fz |
c2Az | c2Az |
dcBA | G2Fz

@@@ Tune index: 4838
